static/images/icons/youtube.svg

<svg fill="none" height="42" viewBox="0 0 42 42" width="42" xmlns="http://www.w3.org/2000/svg" xmlns:xlink="http://www.w3.org/1999/xlink"><linearGradient id="a" gradientUnits="userSpaceOnUse" x1="8.5" x2="34.5" y1="7" y2="36"><stop offset="0" stop-color="#fec976"/><stop offset=".5" stop-color="#ffea8d"/><stop offset="1" stop-color="#cade39"/></linearGradient><clipPath id="b"><path d="m0 0h42v42h-42z"/></clipPath><g clip-path="url(#b)"><path d="m21 42c11.598 0 21-9.402 21-21 0-11.59798-9.402-21-21-21-11.59798 0-21 9.40202-21 21 0 11.598 9.40202 21 21 21z" fill="url(#a)"/><path clip-rule="evenodd" d="m18.0906 25.9971v-9.0013l7.8346 4.5006zm17.2437-11.7133c-.3495-1.2944-1.3576-2.308-2.6499-2.6542-1.7359-.6713-18.5495-1.0002-23.42687.0192-1.29232.3501-2.30428 1.3598-2.64992 2.6543-.78346 3.4428-.84299 10.8862.0192 14.4059.34948 1.2944 1.35761 2.3081 2.64992 2.6543 3.43727.7924 19.77847.9039 23.42687 0 1.2923-.3501 2.3043-1.3599 2.6499-2.6543.8353-3.7505.8948-10.7323-.0192-14.4252z" fill="#0e1025" fill-rule="evenodd"/></g></svg>

<svg width="42" height="42" viewBox="0 0 42 42" fill="none" xmlns="http://www.w3.org/2000/svg">
<g clip-path="url(#clip0_586_4542)">
<path d="M21 42C32.598 42 42 32.598 42 21C42 9.40202 32.598 0 21 0C9.40202 0 0 9.40202 0 21C0 32.598 9.40202 42 21 42Z" fill="url(#paint0_linear_586_4542)"/>
<path fill-rule="evenodd" clip-rule="evenodd" d="M18.0906 25.9971V16.9958L25.9252 21.4964L18.0906 25.9971ZM35.3343 14.2838C34.9848 12.9894 33.9767 11.9758 32.6844 11.6296C30.9485 10.9583 14.1349 10.6294 9.25753 11.6488C7.96521 11.9989 6.95325 13.0086 6.60761 14.3031C5.82415 17.7459 5.76462 25.1893 6.62681 28.709C6.97629 30.0034 7.98442 31.0171 9.27673 31.3633C12.714 32.1557 29.0552 32.2672 32.7036 31.3633C33.9959 31.0132 35.0079 30.0034 35.3535 28.709C36.1888 24.9585 36.2483 17.9767 35.3343 14.2838Z" fill="#0E1025"/>
</g>
<defs>
<linearGradient id="paint0_linear_586_4542" x1="8.5" y1="7" x2="34.5" y2="36" gradientUnits="userSpaceOnUse">
<stop stop-color="#FEC976"/>
<stop offset="0.5" stop-color="#FFEA8D"/>
<stop offset="1" stop-color="#CADE39"/>
</linearGradient>
<clipPath id="clip0_586_4542">
<rect width="42" height="42" fill="white"/>
</clipPath>
</defs>
</svg>
